!!!OTL: FRISCH AUF IHR GESELLEN
!!!ARE: Europa, Mitteleuropa, Deutschland, Hessen, Lahn - Gegend
!!!SCT: E1604
!!!YEM: Copyright 1995, estate of Helmut Schaffrath.
**kern
*ICvox
*Ivox
*M4/4
*k[f#]
*G:
{4d
=1
4g
8b
8a
4g
8d
8d
=2
4g
8b
8a
4g
4r}
=3
{4b
4b
4b
4dd
=4
4cc
4a
4b}
{4dd
=5
4cc
4a
4b
8dd
8dd
=6
4cc
4a
4b
4r}
=7
{4.b
8cc
4dd
4dd
=8
4.ee
8dd
8dd
8cc
8cc
8b}
=9
{4.a
8b
4cc
8cc
8ee
=10
4.dd
8cc
8cc
8b
4b}
=11
{4b
4b
4a
4a
=12
4b
4b
4.a}
{8a
=13
4.b
8cc
8dd
8ee
8dd
8dd
=14
8dd
8cc
4cc
4b}
==
!!!AGN: Staende -, Handwerker -, Gesellen - Lied, Wanderschaft
!!!ONB: ESAC (Essen Associative Code) Database: ERK3
!!!AMT: simple quadruple
!!!AIN: vox
!!!EED: Helmut Schaffrath
!!!EEV: 1.0
*-
